X:43
T:Where swopt the Plover (in its pleasure free)
C: Taz Tarry 24 December 2020
Q:1/4=100
M:4/4
L:1/8
K:D
%%textfont Times-Italic 12
%%begintext right
Tune title taken from 'The Mores' by John Clare
%%endtext
"G"d (g "D"f2) "G"d (g "D"f2) |"Bm"f>edc "A"BABc|"G"d (g"D"f2) "D"A (f"A"e2)  |"Bm"f>edc "A"B4|
"G"d (g"D"f2) "D"A (f"A"e2)  |"G"f>edc "A"BAFA|"G"F>ABc "A"edcd |"G"(3edd "A"ce "D"d4:|
"G"F2 "A"A2 "D"d4|"G"cA"A"dB "D"e!slide!f3 |"G"dBcA "D"GBAc|"Bm"f>edf "A"e4|
"D"d2 "G"f2 "A"a4|"D"a>fed "A"e>cBA|"Bm"F>ABc "A"edcd |"G"(3edd "A"ce "D"d4:|

